icons/svg/crown.svg

﻿<?xml version="1.0" encoding="utf-8"?>
<!DOCTYPE svg PUBLIC "-//W3C//DTD SVG 1.1//EN" "http://www.w3.org/Graphics/SVG/1.1/DTD/svg11.dtd">
<svg xmlns="http://www.w3.org/2000/svg" xmlns:xlink="http://www.w3.org/1999/xlink" version="1.1" baseProfile="full" width="24" height="24" viewBox="0 0 24.00 24.00" enable-background="new 0 0 24.00 24.00" xml:space="preserve">
	<path fill="#000000" fill-opacity="1" stroke-linejoin="round" d="M 5,16L 3,5.00001L 8.49999,12L 12,5.00001L 15.5,12L 21,5.00001L 19,16L 5,16 Z M 19,19C 19,19.5523 18.5523,20 18,20L 6.00001,20C 5.44772,20 5.00001,19.5523 5.00001,19L 5,18L 19,18L 19,19 Z "/>
</svg>

<svg xmlns="http://www.w3.org/2000/svg" version="1.1" baseProfile="full" width="24" height="24" viewBox="0 0 24.00 24.00" xml:space="preserve"><path fill="#000" fill-opacity="1" stroke-linejoin="round" d="M5 16L3 5l5.5 7L12 5l3.5 7L21 5l-2 11H5zm14 3c0 .552-.448 1-1 1H6c-.552 0-1-.448-1-1v-1h14v1z"/></svg>
